lib/logo_tmp/nrk-logo-nrk-sami-radio-on-dark.svg

<svg width="122" height="24" viewBox="0 0 122 24" fill="none" xmlns="http://www.w3.org/2000/svg">
<path d="M0 17.9966V5.99767H3.93719V17.9966H0ZM9.29381 7.90736L11.5581 17.9966H7.24917L4.54549 5.99767H6.96218C7.51635 5.99048 8.05406 6.18583 8.4745 6.54697C8.89562 6.89296 9.18495 7.37328 9.29381 7.90736ZM12.1495 17.9966V5.99767H16.0867V17.9966H12.1495ZM19.0605 10.5607C18.6362 10.5648 18.2188 10.4538 17.8525 10.2395C17.4912 10.0307 17.1911 9.73054 16.9823 9.36918C16.7678 9.00291 16.6568 8.58534 16.661 8.1609C16.6561 7.73904 16.7672 7.32396 16.9823 6.96101C17.1933 6.60357 17.4931 6.30668 17.8525 6.0991C18.2189 5.88508 18.6362 5.7741 19.0605 5.77797C19.4822 5.77342 19.8971 5.88451 20.2602 6.0991C20.616 6.30849 20.9127 6.60514 21.122 6.96101C21.3368 7.32406 21.4479 7.73908 21.4433 8.1609C21.4473 8.58531 21.3363 9.00281 21.122 9.36918C20.9149 9.72896 20.6179 10.0289 20.2602 10.2395C19.8971 10.4546 19.4819 10.5657 19.0599 10.5607H19.0605ZM22.0516 17.9966V5.99767H25.9892V17.9966H22.0516ZM30.9737 12.5548C30.9848 12.5665 31.0693 12.7045 31.2272 12.9689C31.3851 13.2332 31.5906 13.5713 31.8439 13.9829C32.0974 14.3943 32.3649 14.8308 32.6463 15.2926C32.9278 15.7543 33.1926 16.1909 33.4408 16.6024C33.6881 17.0138 33.9697 17.4785 34.2857 17.9966H29.9598C29.6893 17.5572 29.4441 17.16 29.2245 16.8051C29.0048 16.4503 28.7713 16.0672 28.5238 15.6559C28.2758 15.2451 28.0306 14.8451 27.7882 14.456C27.5458 14.067 27.3375 13.7262 27.1633 13.4336C26.9883 13.1409 26.8671 12.9437 26.7997 12.8421C26.6325 12.59 26.5336 12.2989 26.5127 11.9971C26.5294 11.7075 26.6226 11.4276 26.7828 11.1857C26.8504 11.073 26.9743 10.873 27.1545 10.5857C27.3348 10.2984 27.546 9.95764 27.7882 9.56331C28.0304 9.16898 28.2756 8.76619 28.5238 8.35496C28.772 7.94373 29.0056 7.55782 29.2245 7.19729C29.4445 6.83713 29.6897 6.43717 29.9598 5.9974H34.2857L30.9396 11.4561C30.8361 11.6181 30.7777 11.8049 30.7706 11.9971C30.7818 12.1989 30.8522 12.3929 30.9731 12.5548H30.9737Z" fill="white"/>
<path d="M45.7958 12.3335C45.5475 12.0805 45.2593 11.87 44.9427 11.7105C44.6109 11.5426 44.2656 11.4026 43.9105 11.2921C43.5464 11.1783 43.171 11.0816 42.7845 11.0019C42.4884 10.9338 42.2126 10.8657 41.957 10.7974C41.7222 10.7368 41.4936 10.6538 41.2746 10.5496C41.0862 10.4604 40.9111 10.3455 40.7542 10.2082C40.6065 10.0781 40.4924 9.91428 40.4215 9.73061C40.3426 9.51471 40.305 9.28591 40.3106 9.05612C40.3066 8.81827 40.3442 8.58154 40.4215 8.3566C40.4913 8.15782 40.6084 7.97904 40.7627 7.83573C40.9225 7.68963 41.1037 7.56876 41.2999 7.47729C41.5248 7.37497 41.7634 7.30597 42.0082 7.27247C42.2992 7.23121 42.5929 7.21134 42.8868 7.21301C43.1547 7.21339 43.4223 7.22754 43.6887 7.2554C43.9581 7.28354 44.2258 7.32637 44.4906 7.3837C44.7478 7.43929 45.0013 7.51054 45.2498 7.59705C45.4825 7.67717 45.708 7.777 45.9237 7.89547L46.1626 6.39373C45.92 6.26705 45.6657 6.16416 45.4034 6.0865C45.1361 6.00684 44.8659 5.93847 44.593 5.88139C44.3167 5.82425 44.0377 5.78162 43.757 5.75366C43.4726 5.72521 43.1826 5.71089 42.8868 5.7107C42.2835 5.70409 41.6817 5.7729 41.0954 5.91553C40.5961 6.03598 40.1242 6.2504 39.705 6.54734C39.3186 6.8247 39.0077 7.19423 38.8004 7.62237C38.5798 8.10372 38.4719 8.62913 38.4851 9.15853C38.4755 9.5683 38.5419 9.97631 38.681 10.3619C38.8037 10.6849 38.9927 10.9786 39.2358 11.2241C39.4763 11.4644 39.7525 11.6659 40.0547 11.8215C40.375 11.9864 40.7088 12.1236 41.0525 12.2314C41.4112 12.3452 41.778 12.4419 42.1529 12.5216C42.4604 12.5897 42.7448 12.6608 43.006 12.7349C43.2495 12.802 43.4865 12.8905 43.7143 12.9995C43.91 13.0919 44.091 13.2126 44.2515 13.3579C44.4039 13.5011 44.5234 13.6759 44.6015 13.87C44.692 14.1038 44.7355 14.3532 44.7294 14.6039C44.7339 14.8705 44.6936 15.1359 44.61 15.3891C44.5352 15.608 44.4194 15.8108 44.2688 15.9865C44.1173 16.1594 43.9314 16.2988 43.7228 16.3956C43.4871 16.5041 43.2373 16.5789 42.9807 16.6177C42.6674 16.6658 42.3507 16.6886 42.0338 16.686C41.7258 16.6852 41.4181 16.6653 41.1125 16.6263C40.7936 16.5864 40.4752 16.5324 40.1571 16.4641C39.839 16.3958 39.5289 16.3132 39.227 16.2163C38.9257 16.1202 38.6386 16.0207 38.3657 15.9179L38.5872 17.6077C38.8781 17.7164 39.1743 17.8103 39.4746 17.889C39.7472 17.9606 40.0234 18.0176 40.3021 18.0597C40.569 18.0996 40.8363 18.1308 41.104 18.1536C41.3716 18.1764 41.6418 18.1877 41.9144 18.1877C42.5251 18.1915 43.1343 18.1286 43.7314 18C44.26 17.8892 44.7633 17.6808 45.2157 17.3855C45.6377 17.1061 45.9788 16.7205 46.2049 16.2675C46.4543 15.7311 46.5742 15.1435 46.555 14.5522C46.5643 14.1116 46.4978 13.6727 46.3585 13.2547C46.2398 12.9104 46.0478 12.5963 45.7958 12.3335Z" fill="#9FDAF5"/>
<path d="M56.0068 16.9247C55.8821 16.9362 55.7565 16.9174 55.6406 16.8698C55.5248 16.8223 55.4221 16.7474 55.3414 16.6516C55.1832 16.3782 55.1174 16.061 55.1537 15.7472L55.1879 12.2309C55.1916 11.8623 55.1457 11.4948 55.0514 11.1385C54.9685 10.826 54.8298 10.5311 54.6419 10.268C54.4522 10.0107 54.2111 9.79564 53.9339 9.63646C53.6119 9.45362 53.2638 9.32122 52.9017 9.24389C52.4589 9.1482 52.0068 9.10239 51.5539 9.10734C51.1945 9.10718 50.8355 9.12998 50.479 9.17561C50.1422 9.21801 49.8087 9.2836 49.4809 9.3719C49.1769 9.4544 48.8779 9.55413 48.5852 9.6706L48.3805 11.1214C48.6648 11.019 48.9351 10.9337 49.1912 10.8654C49.4473 10.7971 49.6946 10.7402 49.9331 10.6947C50.1671 10.65 50.4035 10.6186 50.6411 10.6008C50.8741 10.5838 51.1044 10.5752 51.3321 10.5752C51.68 10.5679 52.0272 10.6081 52.3643 10.6947C52.6102 10.7562 52.8363 10.8796 53.0211 11.0531C53.1857 11.2219 53.3033 11.4308 53.3623 11.6591C53.4351 11.9406 53.4695 12.2306 53.4647 12.5213L53.4627 12.948L51.4685 13.0829C50.7864 13.102 50.1145 13.2527 49.4895 13.5266C49.0218 13.7315 48.618 14.0587 48.3208 14.4739C48.0686 14.8435 47.9347 15.281 47.9369 15.7285C47.9337 16.1483 48.0364 16.5622 48.2355 16.9318C48.4442 17.3115 48.7582 17.6227 49.1397 17.8279C49.6051 18.0701 50.1253 18.1877 50.6496 18.1693C51.1409 18.1806 51.6299 18.0995 52.0913 17.9303C52.4902 17.7743 52.8552 17.5424 53.1661 17.2476C53.2841 17.1343 53.3961 17.015 53.5017 16.89C53.535 17.0667 53.5974 17.2367 53.6865 17.3929C53.8386 17.6542 54.0724 17.8581 54.3519 17.9733C54.6608 18.0974 54.9915 18.1583 55.3243 18.1525C55.4267 18.1525 55.5262 18.1493 55.6229 18.1437C55.7179 18.1382 55.8121 18.1239 55.9044 18.101C55.9954 18.0782 56.0776 18.0583 56.1518 18.0412C56.2186 18.0263 56.2842 18.0063 56.348 17.9815L56.5357 16.8379C56.4415 16.8703 56.3444 16.8933 56.2456 16.9065C56.1664 16.917 56.0867 16.9226 56.0068 16.9233M53.1661 16.1552C52.9812 16.3015 52.781 16.4274 52.569 16.5307C52.3579 16.6334 52.1343 16.708 51.9039 16.7529C51.6648 16.7988 51.4219 16.8216 51.1785 16.8209C50.9005 16.8288 50.624 16.7764 50.3681 16.6672C50.16 16.5769 49.9844 16.4252 49.8648 16.2323C49.7467 16.0276 49.6876 15.7941 49.6942 15.5578C49.6777 15.2732 49.7557 14.9912 49.916 14.7556C50.1017 14.5387 50.3534 14.3888 50.6326 14.3289C51.0685 14.2263 51.5159 14.1805 51.9636 14.1926H53.4573L53.4496 15.8864C53.3628 15.984 53.2676 16.0739 53.1653 16.1552" fill="#9FDAF5"/>
<path d="M54.2493 5.04504H52.4067L50.9565 8.1003H52.2872L54.2493 5.04504Z" fill="#9FDAF5"/>
<path d="M69.9448 9.46577C69.4797 9.21304 68.9554 9.08929 68.4264 9.10733C67.9672 9.1061 67.5113 9.18405 67.0786 9.33776C66.6392 9.49526 66.2253 9.71668 65.8505 9.99489C65.6377 10.1523 65.4354 10.3233 65.2448 10.5069C65.07 10.0796 64.7616 9.72037 64.3659 9.48284C63.895 9.22885 63.365 9.10511 62.8304 9.1244C62.3742 9.1246 61.9214 9.20252 61.4914 9.35482C61.0498 9.51014 60.6331 9.72861 60.2542 10.0034C60.1316 10.0919 60.0127 10.1878 59.8959 10.2879V9.1244L58.1556 9.38043V18H59.8959V11.5077C60.1009 11.3734 60.3146 11.2529 60.5357 11.147C60.8063 11.0191 61.0893 10.919 61.3802 10.8483C61.6483 10.782 61.9233 10.7477 62.1994 10.7459C62.4528 10.7383 62.7051 10.7818 62.9413 10.8739C63.1368 10.9568 63.3096 11.0856 63.4449 11.2494C63.5929 11.4397 63.695 11.6617 63.7431 11.898C63.8098 12.2035 63.8414 12.5156 63.8373 12.8283V18H65.5775V12.4698C65.5785 12.1433 65.5565 11.8172 65.5115 11.4938C65.7087 11.3641 65.913 11.2454 66.1234 11.1385C66.3894 11.0045 66.6698 10.9014 66.9592 10.8312C67.2328 10.7643 67.5134 10.7299 67.7951 10.7288C68.0458 10.7228 68.2952 10.7663 68.5291 10.8568C68.7279 10.938 68.9038 11.067 69.0409 11.2324C69.1892 11.4225 69.2914 11.6446 69.3395 11.881C69.406 12.1865 69.4375 12.4985 69.4333 12.8112V18H71.1735V12.4527C71.1955 11.8072 71.0911 11.1636 70.8664 10.5581C70.6895 10.1015 70.365 9.71711 69.9448 9.46577Z" fill="#9FDAF5"/>
<path d="M73.7503 18.0003H75.4905V9.12469L73.7503 9.38071V18.0003Z" fill="#9FDAF5"/>
<path d="M75.2423 5.54856C75.0653 5.44032 74.8614 5.38413 74.654 5.38641C74.4439 5.3848 74.2373 5.44088 74.0569 5.54856C73.879 5.65274 73.7296 5.79934 73.6221 5.97528C73.5137 6.15237 73.4574 6.35648 73.4597 6.56414C73.4594 6.7725 73.5146 6.97718 73.6195 7.15716C73.7245 7.33714 73.8754 7.48593 74.0569 7.58824C74.2391 7.69071 74.445 7.74367 74.654 7.74186C74.8603 7.74432 75.0635 7.69126 75.2423 7.58824C75.4179 7.48666 75.5625 7.33914 75.6606 7.16153C75.763 6.9792 75.8159 6.77326 75.8141 6.56414C75.8165 6.35765 75.7635 6.15431 75.6606 5.97528C75.5591 5.80021 75.4153 5.65347 75.2423 5.54856Z" fill="#9FDAF5"/>
<path d="M85.7431 9.23535C85.424 9.32091 85.1193 9.4532 84.8389 9.62793C84.5478 9.80965 84.2787 10.0244 84.037 10.268C83.9966 10.3084 83.9577 10.3533 83.9176 10.3957V9.12441L82.1773 9.38044V18H83.9176V11.5515C84.0498 11.4605 84.1832 11.3752 84.3185 11.3006C84.4893 11.2066 84.666 11.1239 84.8477 11.0531C85.0238 10.9849 85.2028 10.9251 85.3848 10.8739C85.5721 10.8218 85.7632 10.7847 85.9564 10.763C86.1631 10.7403 86.3714 10.7346 86.5791 10.7459L86.7838 9.14148C86.4341 9.11634 86.0827 9.14805 85.7431 9.23535Z" fill="#9FDAF5"/>
<path d="M95.5365 16.9247C95.4118 16.9362 95.2862 16.9174 95.1703 16.8698C95.0544 16.8223 94.9518 16.7474 94.8711 16.6516C94.7129 16.3782 94.6471 16.061 94.6834 15.7472L94.7176 12.2309C94.7213 11.8623 94.6754 11.4948 94.5811 11.1385C94.4982 10.826 94.3595 10.5311 94.1716 10.268C93.9819 10.0107 93.7407 9.79564 93.4636 9.63646C93.1416 9.45362 92.7935 9.32122 92.4314 9.24389C91.9886 9.1482 91.5365 9.10239 91.0835 9.10734C90.7242 9.10718 90.3652 9.12998 90.0087 9.17561C89.6719 9.21801 89.3384 9.2836 89.0106 9.3719C88.7066 9.4544 88.4076 9.55413 88.1149 9.6706L87.9102 11.1214C88.1945 11.019 88.4648 10.9337 88.7209 10.8654C88.977 10.7971 89.2243 10.7402 89.4627 10.6947C89.6968 10.65 89.9332 10.6186 90.1708 10.6008C90.4037 10.5838 90.6341 10.5752 90.8617 10.5752C91.2096 10.5679 91.5569 10.6081 91.8939 10.6947C92.1399 10.7562 92.366 10.8796 92.5508 11.0531C92.7154 11.2219 92.833 11.4308 92.892 11.6591C92.9648 11.9406 92.9992 12.2306 92.9944 12.5213L92.9924 12.948L90.9982 13.0829C90.3161 13.102 89.6441 13.2527 89.0191 13.5266C88.5515 13.7315 88.1477 14.0587 87.8505 14.4739C87.5983 14.8435 87.4644 15.281 87.4666 15.7285C87.4634 16.1483 87.5661 16.5622 87.7652 16.9318C87.9739 17.3115 88.2879 17.6227 88.6694 17.8279C89.1348 18.0701 89.655 18.1877 90.1793 18.1693C90.6706 18.1806 91.1596 18.0995 91.621 17.9303C92.0199 17.7743 92.3849 17.5424 92.6958 17.2476C92.8138 17.1343 92.9258 17.015 93.0313 16.89C93.0646 17.0667 93.1271 17.2367 93.2162 17.3929C93.3683 17.6542 93.6021 17.8581 93.8816 17.9733C94.1905 18.0974 94.5212 18.1583 94.854 18.1525C94.9564 18.1525 95.0559 18.1493 95.1526 18.1437C95.2476 18.1382 95.3418 18.1239 95.4341 18.101C95.5251 18.0782 95.6073 18.0583 95.6815 18.0412C95.7483 18.0263 95.8139 18.0063 95.8777 17.9815L96.0654 16.8379C95.9712 16.8703 95.8741 16.8933 95.7753 16.9065C95.6961 16.917 95.6164 16.9226 95.5365 16.9233M92.6958 16.1552C92.5109 16.3015 92.3107 16.4274 92.0987 16.5307C91.8876 16.6334 91.664 16.708 91.4336 16.7529C91.1945 16.7988 90.9516 16.8216 90.7082 16.8209C90.4301 16.8288 90.1537 16.7764 89.8978 16.6672C89.6897 16.5769 89.5141 16.4252 89.3945 16.2323C89.2763 16.0276 89.2173 15.7941 89.2239 15.5578C89.2074 15.2732 89.2854 14.9912 89.4457 14.7556C89.6314 14.5387 89.8831 14.3888 90.1622 14.3289C90.5982 14.2263 91.0456 14.1805 91.4933 14.1926H92.987L92.9793 15.8864C92.8924 15.984 92.7973 16.0739 92.695 16.1552" fill="#9FDAF5"/>
<path d="M103.607 9.52181C103.59 9.51498 103.574 9.50673 103.556 9.50019C103.237 9.37981 102.909 9.28553 102.575 9.21828C102.185 9.14147 101.787 9.1044 101.389 9.10761C100.631 9.10178 99.8858 9.30294 99.2335 9.68941C98.5812 10.0759 98.0466 10.6331 97.6873 11.3009C97.2674 12.1025 97.0617 12.999 97.0902 13.9036C97.0706 14.6846 97.225 15.4601 97.5423 16.174C97.8191 16.7834 98.2703 17.2971 98.8389 17.6501C99.4506 18.0102 100.151 18.1906 100.861 18.1707C101.296 18.1732 101.729 18.1157 102.149 18C102.567 17.8798 102.966 17.7017 103.335 17.4709C103.462 17.3918 103.59 17.3036 103.718 17.2109L103.932 18H105.348V5.13038L103.608 5.36934L103.607 9.52181ZM102.694 16.5409C102.305 16.6941 101.893 16.7778 101.475 16.7884C100.987 16.8026 100.504 16.6877 100.076 16.4553C99.6765 16.2195 99.365 15.8599 99.1884 15.4312C98.9671 14.8813 98.8625 14.2913 98.8813 13.6987C98.8614 13.0917 98.978 12.4878 99.2225 11.9319C99.4308 11.4808 99.7735 11.1053 100.204 10.8568C100.671 10.6019 101.198 10.4752 101.731 10.4896C102.005 10.489 102.278 10.509 102.549 10.5493C102.818 10.591 103.084 10.6539 103.343 10.7374C103.426 10.7638 103.518 10.7991 103.607 10.8315V16.0923C103.317 16.2691 103.012 16.4193 102.694 16.5409Z" fill="#9FDAF5"/>
<path d="M109.501 5.54856C109.324 5.44032 109.12 5.38413 108.912 5.38641C108.702 5.3848 108.496 5.44088 108.315 5.54856C108.137 5.65273 107.988 5.79933 107.88 5.97528C107.772 6.15237 107.716 6.35648 107.718 6.56414C107.718 6.7725 107.773 6.97718 107.878 7.15716C107.983 7.33714 108.134 7.48593 108.315 7.58824C108.497 7.69071 108.703 7.74367 108.912 7.74186C109.119 7.74432 109.322 7.69126 109.501 7.58824C109.676 7.48666 109.821 7.33914 109.919 7.16153C110.021 6.9792 110.074 6.77326 110.073 6.56414C110.075 6.35765 110.022 6.15431 109.919 5.97528C109.817 5.80021 109.674 5.65347 109.501 5.54856Z" fill="#9FDAF5"/>
<path d="M108.008 18.0003H109.748V9.12469L108.008 9.38071V18.0003Z" fill="#9FDAF5"/>
<path d="M120.121 11.1982C119.781 10.5455 119.256 10.0081 118.611 9.65352C117.891 9.2915 117.095 9.10439 116.289 9.10736C115.483 9.11033 114.688 9.30328 113.971 9.67059C113.312 10.0397 112.773 10.5908 112.418 11.258C112.033 12.0065 111.842 12.84 111.864 13.6817C111.842 14.5167 112.02 15.3449 112.384 16.0969C112.71 16.7532 113.232 17.2927 113.877 17.6416C114.571 18.0055 115.346 18.1875 116.129 18.1707C116.949 18.187 117.759 17.9931 118.483 17.6074C119.159 17.2385 119.713 16.6811 120.079 16.003C120.475 15.2455 120.671 14.3997 120.65 13.5451C120.669 12.7312 120.488 11.9251 120.121 11.1982ZM118.509 15.3715C118.317 15.8151 117.992 16.1881 117.579 16.4382C117.164 16.6759 116.692 16.7968 116.214 16.7881C115.745 16.7998 115.283 16.6753 114.883 16.4297C114.488 16.1668 114.179 15.7926 113.997 15.3544C113.764 14.7922 113.654 14.1872 113.673 13.5793C113.653 12.9877 113.764 12.399 113.998 11.8554C114.189 11.428 114.508 11.0702 114.91 10.8312C115.341 10.5941 115.827 10.4763 116.318 10.4899C116.701 10.4804 117.083 10.5531 117.436 10.7032C117.745 10.8428 118.014 11.0569 118.22 11.3262C118.44 11.619 118.6 11.9526 118.689 12.3077C118.796 12.723 118.848 13.1505 118.843 13.5793C118.863 14.1937 118.749 14.8052 118.51 15.3715" fill="#9FDAF5"/>
</svg>

<svg xmlns="http://www.w3.org/2000/svg" viewBox="0 0 122 24"><path fill="#fff" d="M0 17.997v-12h3.937v12H0Zm9.294-10.09 2.264 10.09H7.25l-2.704-12h2.417a2.276 2.276 0 0 1 1.513.55c.42.346.71.826.819 1.36Zm2.855 10.09v-12h3.938v12h-3.938Zm6.912-7.436a2.381 2.381 0 0 1-2.078-1.192 2.345 2.345 0 0 1-.322-1.208 2.301 2.301 0 0 1 .321-1.2 2.41 2.41 0 0 1 3.278-.862c.356.21.653.506.862.862.215.363.326.778.321 1.2a2.35 2.35 0 0 1-.321 1.208c-.207.36-.504.66-.862.87a2.301 2.301 0 0 1-1.2.322Zm2.99 7.436v-12h3.938v12h-3.937Zm8.923-5.442c.01.011.095.15.253.414s.364.602.617 1.014a309.436 309.436 0 0 1 1.597 2.62c.247.41.529.875.845 1.394H29.96c-.27-.44-.516-.837-.736-1.192-.22-.355-.453-.738-.7-1.15-.248-.41-.493-.81-.736-1.199a60.12 60.12 0 0 1-.625-1.022 18.04 18.04 0 0 0-.363-.592 1.747 1.747 0 0 1-.287-.845c.016-.29.11-.57.27-.811.067-.113.191-.313.371-.6a182.106 182.106 0 0 0 1.37-2.23l.7-1.159.736-1.2h4.326l-3.346 5.46a1.079 1.079 0 0 0-.17.54c.012.202.082.396.203.558Z"/><path fill="#9FDAF5" d="M45.796 12.334a3.234 3.234 0 0 0-.853-.623 6.686 6.686 0 0 0-1.032-.419 11.68 11.68 0 0 0-1.127-.29 24.41 24.41 0 0 1-.827-.205 3.797 3.797 0 0 1-.682-.247 2.257 2.257 0 0 1-.52-.342 1.224 1.224 0 0 1-.334-.477 1.835 1.835 0 0 1-.11-.675 2.047 2.047 0 0 1 .11-.7c.07-.198.187-.377.342-.52a2.13 2.13 0 0 1 .537-.359c.225-.102.463-.171.708-.205.291-.04.585-.06.879-.059a7.815 7.815 0 0 1 1.604.17c.257.056.51.128.759.214.233.08.458.18.674.298l.239-1.501a4.242 4.242 0 0 0-.76-.308c-.267-.08-.537-.148-.81-.205a8.084 8.084 0 0 0-.836-.127 8.794 8.794 0 0 0-.87-.043 7.243 7.243 0 0 0-1.792.205c-.499.12-.97.334-1.39.631a2.854 2.854 0 0 0-.905 1.075 3.48 3.48 0 0 0-.315 1.537c-.01.41.057.817.196 1.203.123.323.312.617.555.862.24.24.517.442.819.598.32.164.654.302.998.41.358.113.725.21 1.1.29.307.068.592.139.853.213.243.067.48.155.708.264a2.2 2.2 0 0 1 .538.359c.152.143.271.318.35.512.09.234.134.483.127.734.005.267-.035.532-.119.785-.075.219-.19.422-.341.598a1.649 1.649 0 0 1-.546.409 2.762 2.762 0 0 1-.742.222 5.92 5.92 0 0 1-.947.068 7.43 7.43 0 0 1-.922-.06c-.318-.04-.637-.094-.955-.162a9.715 9.715 0 0 1-.93-.248 17.718 17.718 0 0 1-.861-.298l.221 1.69c.291.108.587.202.888.281.272.072.548.129.827.17.267.04.534.072.802.095.268.022.538.034.81.034.611.004 1.22-.06 1.817-.188a4.347 4.347 0 0 0 1.485-.614c.422-.28.763-.665.989-1.119.25-.536.37-1.123.35-1.715.01-.44-.057-.88-.197-1.297a2.515 2.515 0 0 0-.562-.921ZM56.007 16.925a.776.776 0 0 1-.666-.273 1.469 1.469 0 0 1-.187-.905l.034-3.516a4.109 4.109 0 0 0-.137-1.092 2.68 2.68 0 0 0-.41-.871 2.307 2.307 0 0 0-.707-.632 3.623 3.623 0 0 0-1.032-.392 6.067 6.067 0 0 0-1.348-.137c-.36 0-.718.023-1.075.069-.337.042-.67.108-.998.196a8.307 8.307 0 0 0-.896.299l-.205 1.45a10.021 10.021 0 0 1 1.553-.426 6.27 6.27 0 0 1 .708-.094c.233-.017.463-.026.691-.026.348-.007.695.033 1.032.12.246.061.472.185.657.358.165.169.282.378.341.606.073.282.107.572.103.862l-.002.427-1.995.135a5.3 5.3 0 0 0-1.979.444 2.837 2.837 0 0 0-1.168.947c-.252.37-.386.807-.384 1.255-.003.42.1.833.299 1.203.208.38.522.69.904.896.465.242.985.36 1.51.341.49.012.98-.07 1.441-.239a3.32 3.32 0 0 0 1.075-.682c.118-.114.23-.233.336-.358.033.177.095.347.184.503.153.261.386.465.666.58.309.124.64.185.972.18.103 0 .202-.004.299-.01.095-.005.19-.02.281-.042l.248-.06c.067-.015.132-.035.196-.06l.188-1.143a1.504 1.504 0 0 1-.29.069c-.08.01-.16.016-.24.016m-2.84-.768a3.272 3.272 0 0 1-.597.376 2.701 2.701 0 0 1-.665.222 3.79 3.79 0 0 1-.726.068 1.925 1.925 0 0 1-.81-.154 1.114 1.114 0 0 1-.503-.435 1.278 1.278 0 0 1-.17-.674 1.293 1.293 0 0 1 .221-.802c.186-.217.437-.367.717-.427a5.197 5.197 0 0 1 1.33-.136h1.494l-.007 1.693a2.273 2.273 0 0 1-.285.27M54.25 5.045h-1.843L50.957 8.1h1.33l1.962-3.055ZM69.945 9.466a2.968 2.968 0 0 0-1.519-.359 3.994 3.994 0 0 0-1.347.23 4.75 4.75 0 0 0-1.228.658 6.114 6.114 0 0 0-.606.512 2.14 2.14 0 0 0-.88-1.024c-.47-.254-1-.378-1.535-.359-.456 0-.909.079-1.339.23a4.846 4.846 0 0 0-1.595.934V9.124l-1.74.256V18h1.74v-6.492c.205-.135.419-.255.64-.361.27-.128.553-.228.844-.299.268-.066.543-.1.82-.102.253-.008.505.036.741.128.196.083.369.212.504.375.148.19.25.413.298.649.067.306.098.618.094.93V18h1.74v-5.53a6.927 6.927 0 0 0-.066-.976 6.34 6.34 0 0 1 .612-.355c.266-.134.547-.238.836-.308.274-.067.554-.101.836-.102.25-.006.5.037.734.128.199.081.375.21.512.375.148.19.25.413.299.649.066.306.097.617.093.93V18h1.74v-5.547a4.96 4.96 0 0 0-.307-1.895 2.199 2.199 0 0 0-.921-1.092ZM73.75 18h1.74V9.125l-1.74.256V18ZM75.242 5.549a1.104 1.104 0 0 0-.588-.163 1.148 1.148 0 0 0-.597.163 1.25 1.25 0 0 0-.435.426 1.105 1.105 0 0 0-.162.59 1.174 1.174 0 0 0 1.194 1.177c.206.002.41-.05.588-.154.176-.101.32-.249.419-.426.102-.183.155-.389.153-.598.003-.206-.05-.41-.153-.589a1.207 1.207 0 0 0-.419-.426ZM85.743 9.235a3.35 3.35 0 0 0-.904.393c-.291.182-.56.396-.802.64-.04.04-.08.085-.12.128V9.124l-1.74.256V18h1.74v-6.448a4.443 4.443 0 0 1 .93-.498c.177-.07.356-.129.538-.18a3.655 3.655 0 0 1 1.194-.128l.205-1.605a3.245 3.245 0 0 0-1.04.094ZM95.537 16.925a.776.776 0 0 1-.666-.273 1.469 1.469 0 0 1-.188-.905l.035-3.516a4.109 4.109 0 0 0-.137-1.092 2.68 2.68 0 0 0-.41-.871 2.308 2.308 0 0 0-.707-.632 3.623 3.623 0 0 0-1.033-.392 6.067 6.067 0 0 0-1.347-.137c-.36 0-.719.023-1.075.069-.337.042-.67.108-.998.196a8.307 8.307 0 0 0-.896.299l-.205 1.45a10.021 10.021 0 0 1 1.553-.426c.234-.045.47-.076.708-.094.233-.017.463-.026.69-.026.349-.007.696.033 1.033.12.246.061.472.185.657.358.164.169.282.378.341.606.073.282.107.572.102.862l-.002.427-1.994.135a5.3 5.3 0 0 0-1.979.444 2.838 2.838 0 0 0-1.169.947c-.252.37-.386.807-.383 1.255-.004.42.1.833.298 1.203.209.38.523.69.904.896.466.242.986.36 1.51.341.492.012.98-.07 1.442-.239a3.32 3.32 0 0 0 1.075-.682c.118-.114.23-.233.335-.358.034.177.096.347.185.503.152.261.386.465.666.58.308.124.64.185.972.18.102 0 .202-.004.299-.01.095-.005.189-.02.281-.042.091-.023.173-.043.248-.06.066-.015.132-.035.196-.06l.187-1.143a1.504 1.504 0 0 1-.29.069c-.079.01-.159.016-.239.016m-2.84-.768a3.272 3.272 0 0 1-.597.376 2.701 2.701 0 0 1-.665.222 3.79 3.79 0 0 1-.726.068 1.925 1.925 0 0 1-.81-.154 1.114 1.114 0 0 1-.504-.435 1.277 1.277 0 0 1-.17-.674 1.293 1.293 0 0 1 .222-.802c.185-.217.437-.367.716-.427a5.198 5.198 0 0 1 1.331-.136h1.494l-.008 1.693a2.28 2.28 0 0 1-.284.27M103.607 9.522l-.051-.022a5.896 5.896 0 0 0-2.167-.393 4.166 4.166 0 0 0-3.702 2.194 5.252 5.252 0 0 0-.597 2.603c-.02.78.135 1.556.452 2.27.277.61.728 1.123 1.297 1.476.612.36 1.312.54 2.022.52.435.003.868-.054 1.288-.17a4.67 4.67 0 0 0 1.186-.53c.127-.078.255-.166.383-.26l.214.79h1.416V5.13l-1.74.24-.001 4.152Zm-.913 7.019a3.571 3.571 0 0 1-1.219.247c-.488.015-.971-.1-1.399-.333a2.132 2.132 0 0 1-.888-1.024 4.277 4.277 0 0 1-.307-1.732c-.02-.607.097-1.211.341-1.767.209-.451.552-.827.982-1.075a3.017 3.017 0 0 1 1.527-.367 5.172 5.172 0 0 1 1.612.248c.083.026.175.061.264.093v5.261c-.29.177-.595.327-.913.449ZM109.501 5.549a1.105 1.105 0 0 0-.589-.163 1.15 1.15 0 0 0-.597.163c-.178.104-.327.25-.435.426a1.11 1.11 0 0 0-.162.59 1.177 1.177 0 0 0 1.194 1.177c.207.002.41-.05.589-.154.175-.101.32-.249.418-.426.102-.183.155-.389.154-.598a1.158 1.158 0 0 0-.154-.589 1.21 1.21 0 0 0-.418-.426ZM108.008 18h1.74V9.125l-1.74.256V18ZM120.121 11.198a3.727 3.727 0 0 0-1.51-1.544 5.128 5.128 0 0 0-4.64.017 3.94 3.94 0 0 0-1.553 1.587 5.013 5.013 0 0 0-.554 2.424 5.227 5.227 0 0 0 .52 2.415 3.556 3.556 0 0 0 1.493 1.545 4.636 4.636 0 0 0 2.252.529c.82.016 1.63-.178 2.354-.564a3.981 3.981 0 0 0 1.596-1.604 5.037 5.037 0 0 0 .571-2.458 4.95 4.95 0 0 0-.529-2.347Zm-1.612 4.173a2.328 2.328 0 0 1-.93 1.067 2.65 2.65 0 0 1-1.365.35 2.427 2.427 0 0 1-1.331-.358 2.397 2.397 0 0 1-.886-1.076 4.286 4.286 0 0 1-.324-1.775c-.02-.591.091-1.18.325-1.724a2.27 2.27 0 0 1 .912-1.024 2.762 2.762 0 0 1 1.408-.341 2.69 2.69 0 0 1 1.118.213c.309.14.578.354.784.623.22.293.38.627.469.982.107.415.159.842.154 1.271a4.254 4.254 0 0 1-.333 1.792"/></svg>
